patterns/atoms/copy/icon.svg

<svg width="24" height="24" xmlns="http://www.w3.org/2000/svg">
  <path d="M3 15h6v2H3v-2zm0-9h15v1H3V6zm0 3h18v1H3V9zm0 3h11v1H3v-1z" fill="#5C5C5C"/>
</svg>

<?xml version="1.0" encoding="UTF-8"?>
<svg width="24px" height="24px" viewBox="0 0 24 24" version="1.1" xmlns="http://www.w3.org/2000/svg" xmlns:xlink="http://www.w3.org/1999/xlink">
    <g fill="#5C5C5C">
        <path d="M3,15 L9,15 L9,17 L3,17 L3,15 Z M3,6 L18,6 L18,7 L3,7 L3,6 Z M3,9 L21,9 L21,10 L3,10 L3,9 Z M3,12 L14,12 L14,13 L3,13 L3,12 Z"></path>
    </g>
</svg>
